icons/radio-2-fill.svg

<svg xmlns="http://www.w3.org/2000/svg" width="24" height="24" fill="none"><g clip-path="url(#a)"><g><path fill="#121212" d="M6 3V1H8V3H21.008C21.556 3 22 3.445 22 3.993V20.007C21.9982 20.2696 21.8931 20.521 21.7075 20.7068C21.5219 20.8926 21.2706 20.9979 21.008 21H2.992C2.72881 20.9997 2.4765 20.895 2.29049 20.7088C2.10448 20.5226 2 20.2702 2 20.007V3.993C2.00183 3.73038 2.1069 3.47902 2.29251 3.29322C2.47813 3.10742 2.72938 3.00209 2.992 3H6ZM9 15C9.79565 15 10.5587 14.6839 11.1213 14.1213C11.6839 13.5587 12 12.7956 12 12C12 11.2044 11.6839 10.4413 11.1213 9.87868C10.5587 9.31607 9.79565 9 9 9C8.20435 9 7.44129 9.31607 6.87868 9.87868C6.31607 10.4413 6 11.2044 6 12C6 12.7956 6.31607 13.5587 6.87868 14.1213C7.44129 14.6839 8.20435 15 9 15ZM14 9V11H18V9H14ZM14 13V15H18V13H14Z"/></g></g><defs><clipPath id="a"><rect width="24" height="24" fill="white"/></clipPath></defs></svg>

<svg width="24" height="24" fill="none" xmlns="http://www.w3.org/2000/svg"><g clip-path="url(#a)"><path d="M6 3V1h2v2h13.008c.548 0 .992.445.992.993v16.014a1 1 0 0 1-.992.993H2.992A.993.993 0 0 1 2 20.007V3.993A1 1 0 0 1 2.992 3H6Zm3 12a3 3 0 1 0 0-6 3 3 0 0 0 0 6Zm5-6v2h4V9h-4Zm0 4v2h4v-2h-4Z" /></g><defs><clipPath id="a"><path fill="#fff" d="M0 0h24v24H0z"/></clipPath></defs></svg>
